X:134
%%pagewidth 8in
%%vocalfont Baskerville10Pro 13
T:Lull me beyond thee
M:6/8
L:1/8
K:C
%%score 1 2
V:1 clef-treble
V:2 clef-bass octave=-1
V:1
E|E2E (c>B)c&x3Ex2|(d>c)d[Ge]3&Ax2x3|E2E (c>B)A&x3Ex2|!>(!(^G3!>)!A2)z&(D3C2)x|
w:As I was walk-*ing all* alone, I heard a youth* la-ment-ing,
V:2
z|z3A,3|F3E3|z3A,2C|(E3A2)z|
V:1
E2E (c>B)c&x3Ex2|(d>c)d[^Ge]3&Ax2x3|E2E (c>B)A&x3Ex2|!>(!(^G3!>)!A2)z&(D3C2)x||
w:Under a hol-*low bush* he lay,~But sore he did* re-pent him.~A-
V:2
z3A,3|F3E3|z3A,2C|(E3A2)z||
V:1
"^cres."[FAc]2[FAc] d>[Ac][FBd]&x3[FB]x2|(e>f)[Gce] [GBd]2G&[Ec]x2x3|[Gc]2[EGc] (d>c)[Fd]&x3Ax2|(e3d2)z&G3G2x|
w:las! quoth he,* my love* is gone, Which caus-eth me* to wan-der,
V:2
F2E D2G,|C2E G2[FB]|[Ec]2[Cc] [Fc]2[Dc]|[Gc]3[GB]2z|
V:1
"^f"e>fe (d>c)B&Gx2[E^G]x2|c>BA [^GBe]3&[EA]x2x3|"_pp"E2E c>BA&x3Ex2|!>(!(^G3!>)!A2)z&(D3C2)x||
w:Yet merry* will* I ne-*ver be, Till~I lie lull-ing be-yond her.
V:2
[CGc]2z[B,EB]2z|[A,EA]2[F,F] [E,E]3|z3A,3|(E3A2)z||

